Numix-GalliumOS/22/status/battery-040-charging.svg

<?xml version="1.0" encoding="UTF-8" standalone="no"?>
<svg
   xmlns:dc="http://purl.org/dc/elements/1.1/"
   xmlns:cc="http://creativecommons.org/ns#"
   xmlns:rdf="http://www.w3.org/1999/02/22-rdf-syntax-ns#"
   xmlns:svg="http://www.w3.org/2000/svg"
   xmlns="http://www.w3.org/2000/svg"
   xmlns:sodipodi="http://sodipodi.sourceforge.net/DTD/sodipodi-0.dtd"
   xmlns:inkscape="http://www.inkscape.org/namespaces/inkscape"
   width="22"
   viewBox="0 0 22 22"
   height="22"
   id="svg2991"
   version="1.1"
   inkscape:version="0.91 r"
   sodipodi:docname="xfpm-ups-040-charging.svg">
  <metadata
     id="metadata3003">
    <rdf:RDF>
      <cc:Work
         rdf:about="">
        <dc:format>image/svg+xml</dc:format>
        <dc:type
           rdf:resource="http://purl.org/dc/dcmitype/StillImage" />
      </cc:Work>
    </rdf:RDF>
  </metadata>
  <defs
     id="defs3001" />
  <sodipodi:namedview
     pagecolor="#ffffff"
     bordercolor="#666666"
     borderopacity="1"
     objecttolerance="10"
     gridtolerance="10"
     guidetolerance="10"
     inkscape:pageopacity="0"
     inkscape:pageshadow="2"
     inkscape:window-width="1366"
     inkscape:window-height="747"
     id="namedview2999"
     showgrid="false"
     inkscape:zoom="21.454545"
     inkscape:cx="6.0533227"
     inkscape:cy="9.8825902"
     inkscape:window-x="0"
     inkscape:window-y="21"
     inkscape:window-maximized="1"
     inkscape:current-layer="svg2991" />
  <path
     d="M 8 3 L 8 5 L 5 5 L 5 19 L 17 19 L 17 5 L 14 5 L 14 3 L 8 3 z M 13 6 L 12 11 L 15 11 L 9 18 L 10 13 L 7 13 L 13 6 z "
     opacity="0.4"
     fill="#ececec"
     id="path2995"
     style="fill:#ececec;fill-opacity:1" />
  <path
     style="opacity:1;fill:#ececec;fill-opacity:1"
     d="M 5.0000001,12.599609 5.0000001,19 17,19 l 0,-6.400391 -3.371094,0 L 9.0000001,18 10,13 l -2.9999998,0 0.34375,-0.400391 -2.3437501,0 z"
     id="path2995-1"
     inkscape:connector-curvature="0" />
</svg>

<svg xmlns="http://www.w3.org/2000/svg" viewBox="0 0 22 22">
 <path d="m 8 3 l 0 2 l -3 0 l 0 14 l 12 0 l 0 -14 l -3 0 l 0 -2 l -6 0 z m 5 3 l -1 5 l 3 0 l -6 7 l 1 -5 l -3 0 l 6 -7 z" style="fill:#ececec;opacity:0.4;fill-opacity:1"/>
 <path d="m 5 12.6 0 6.4 12 0 l 0 -6.4 -3.371 0 l -4.629 5.4 1 -5 l -3 0 0.344 -0.4 -2.344 0 z" style="fill:#ececec;opacity:1;fill-opacity:1"/>
</svg>
